X:43
T:ORganic WINner
C:François Champs
H:13.12.2021
L:1/8
R:Reel
M:4/4
K:G
|:"G"GABc dGG^F|GDB,D G,B,DG|"F"=FGAB cBAG|"D"^FDDD ED^FD |
| "G"GABc dGG^F|GDB,D G,B,DG|"F"=FGAB "D"cBA^F|1"G"GBBB GBDB:|2"G"GBBB GABc |
|:"G"dgg^f gd"A"^cd|"G"BGG^F GAB=c|"Dm"A=ffe fdcd|A=ffe "D"fde^f |
| "G"dgg^f gd^cd|BGG^F GAB=c|"Dm"A=ffe fdcA|1"G"GBBB GABc:|2"G"GBBB GBDB |

